X:22
T: Honky Tonk Swing
C: Bill Monroe - Arr. Mike Compton
S: Climbing The Walls CD
S: MandoZine TablEdit Archives
Z: TablEdited by Risto for MandoZine
L: 1/8
Q: 370
M: 4/4
K: C
 z4 zG, _B,=B, | CC E"MANDOLIN  BREAK #1"G [ecG][ecG] [eeG][ecG] |
 [ecG][ecG] [ec_B][ecG] [eeG][ecG] [ecG][e^dG] | [ecG]_B GF EC EC | _B,/=B,/C B,G, _B,2 _B,G, |
 "F""F"^G,/A,/A, FA, F2 [a2A2F2A,2] | ^F/G/c G=F ^D/E/C E/F/E |
 "C""C"C2 [c2E2C2] [cEC]G, _B,=B, | C2 [c2E2C2] [c2E2C2] [c2E2C2] |
 "G""G"G,_B, =B,G F2 F^F | Gc GF EC E/F/E | "C""C"C2 [c2E2C2] [cEC]G, _B,=B, |
 C2 [c2E2C2] [cEC][cEC] [cEC][cEC] | [ecG][ecG] [ecG][ecG] [ecG][ec^D] [ecE][ecG] |
 [e2^d2G2] [e2^d2G2] [e2^d2G2] [e2^d2G2] | [ecG]_B GF EC EC |
 "C7"A,/_B,/_B, _B,_B, _B,_B, _B,_B, | "F"[^DA,][^DA,] [^DA,][^DA,] ^DA, [^DA,][^DA,] |
 ^F/G/c G=F ^D/E/C E/F/E | "C"CG, _B,=B, EC _B,C | C2 [e2c2E2C2] [e2c2E2C2] [ecEC][ecEC] |
 "G"G,B, DG Bd gb | gf dc _BG FE | "C"C2 [c2E2C2] [cEC]G, _B,=B, | C2 [c2E2C2] [c2E2C2] [ecEC][e/c/G/G,/][e/c/G/G,/|
